X: 20048
T: Jimmy Keane's
R: hornpipe
M: 4/4
K: Gmajor
(3Bc^c|d^cde dBGB|(3efg ag (3efa ge|Bd (3d^cd gedB|FAcB Aded|
Bd (3d^cd edBd|gbag ef (3gfe|dfag fdcA|1 (3GFG (3AGF ~G2:|2 (3GFG (3AGF ~G3 A||
Bdgd Bgfg|ecGe dBGF|Ec (3cBA ~B2 AG|FAcA ecBA|
GBdg bgfg|eceg dB ~B2|dfag fc'af|(3gfg (3agf ~g2 gA|
Bdgd Bgfg|_bg=fe fdBd|Gd ~d2 Gd_Bd|(3g=fe de ~f2 (3c_BA|
GBdg bgfg|eceg dB ~B2|dfag fc'af|(3gfg (3agf ~g3||

